content/packs/basic_addition/pims/grid_counting/field/graphics/icons/four_block_icon.svg

<svg width="50" xmlns="http://www.w3.org/2000/svg" height="50" fill="none"><defs><clipPath id="a" class="frame-clip frame-clip-def"><rect rx="0" ry="0" width="50" height="50"/></clipPath></defs><g clip-path="url(#a)"><g class="fills"><rect rx="0" ry="0" width="50" height="50" class="frame-background"/></g><g class="frame-children"><g class="fills"><rect rx="0" ry="0" x="-45" y="10" width="140" height="30" class="frame-background"/></g><g class="frame-children"><rect rx="0" ry="0" x="-38" y="13" width="126" height="24" style="fill: rgb(204, 204, 204); fill-opacity: 1;" class="fills"/><g class="strokes"><rect rx="0" ry="0" x="-38" y="13" width="126" height="24" style="fill: none; stroke-width: 3; stroke: rgb(0, 0, 0); stroke-opacity: 1;" class="stroke-shape"/></g><g class="fills"><rect rx="0" ry="0" x="19.315" y="17.352" width="11.371" height="15.296" class="frame-background"/></g><g class="frame-children"><path d="M30.685 29.277h-2.112v3.371h-2.197v-3.371h-7.061v-1.792l7.018-10.133h2.24v10.005h2.112Zm-4.309-6.058c0-.669.014-1.295.043-1.878.028-.597.049-1.095.064-1.493h-.086a7.068 7.068 0 0 1-.426.875 5.89 5.89 0 0 1-.491.789l-4.032 5.845h4.928Z" style="display: inline; font-weight: 500; font-size: 5.64444px; line-height: 1.25; font-family: &quot;Noto Sans&quot;; stroke-width: 0.264583; fill: rgb(0, 0, 0); fill-opacity: 1;" class="fills"/></g></g></g></g></svg>

<svg width="50" xmlns="http://www.w3.org/2000/svg" height="50" id="screenshot-c079da11-ea97-8013-8006-2a6d3f6218e4" viewBox="0 0 50 50" xmlns:xlink="http://www.w3.org/1999/xlink" fill="none" version="1.1"><g id="shape-c079da11-ea97-8013-8006-2a6d3f6218e4"><g class="frame-container-wrapper"><g class="frame-container-blur"><g class="frame-container-shadows"><g fill="none"><g class="fills" id="fills-c079da11-ea97-8013-8006-2a6d3f6218e4"><rect rx="0" ry="0" x="0" y="0" width="50" height="50" transform="matrix(1.000000, 0.000000, 0.000000, 1.000000, 0.000000, 0.000000)" class="frame-background"/></g><g class="frame-children"><g id="shape-c079da11-ea97-8013-8006-2a6d3f6218e5"><g class="frame-container-wrapper"><g class="frame-container-blur"><g class="frame-container-shadows"><g fill="none"><g class="fills" id="fills-c079da11-ea97-8013-8006-2a6d3f6218e5"><rect rx="0" ry="0" x="3" y="13" width="44" height="24" transform="matrix(1.000000, 0.000000, 0.000000, 1.000000, 0.000000, 0.000000)" class="frame-background"/></g><g class="frame-children"><g id="shape-c079da11-ea97-8013-8006-2a6d3f6218e6"><g class="fills" id="fills-c079da11-ea97-8013-8006-2a6d3f6218e6"><rect rx="0" ry="0" x="3" y="13" transform="matrix(1.000000, 0.000000, 0.000000, 1.000000, 0.000000, 0.000000)" width="44" height="24" style="fill: rgb(204, 204, 204); fill-opacity: 1;"/></g><g id="strokes-18cb738f-1f02-80ab-8006-2a6e91c52661-c079da11-ea97-8013-8006-2a6d3f6218e6" class="strokes"><g class="stroke-shape"><rect rx="0" ry="0" x="3" y="13" transform="matrix(1.000000, 0.000000, 0.000000, 1.000000, 0.000000, 0.000000)" width="44" height="24" style="fill: none; stroke-width: 3; stroke: rgb(0, 0, 0); stroke-opacity: 1;"/></g></g></g></g></g></g></g></g></g><g id="shape-c079da11-ea97-8013-8006-2a6daa302aa0"><g class="frame-container-wrapper"><g class="frame-container-blur"><g class="frame-container-shadows"><g fill="none"><g class="fills" id="fills-c079da11-ea97-8013-8006-2a6daa302aa0"><rect rx="0" ry="0" x="19.314631215539748" y="17.351954437913946" width="11.370737568920504" height="15.296091124172108" transform="matrix(1.000000, 0.000000, 0.000000, 1.000000, 0.000000, 0.000000)" class="frame-background"/></g><g class="frame-children"><g id="shape-c079da11-ea97-8013-8006-2a6daa304439"><g class="fills" id="fills-c079da11-ea97-8013-8006-2a6daa304439"><path d="M30.685,29.277L28.573,29.277L28.573,32.648L26.376,32.648L26.376,29.277L19.315,29.277L19.315,27.485L26.333,17.352L28.573,17.352L28.573,27.357L30.685,27.357ZM26.376,23.219C26.376,22.550,26.390,21.924,26.419,21.341C26.447,20.744,26.468,20.246,26.483,19.848L26.397,19.848C26.284,20.132,26.141,20.424,25.971,20.723C25.814,21.021,25.651,21.284,25.480,21.512L21.448,27.357L26.376,27.357Z" style="display: inline; font-weight: 500; font-size: 5.64444px; line-height: 1.25; font-family: &quot;Noto Sans&quot;; stroke-width: 0.264583; fill: rgb(0, 0, 0); fill-opacity: 1;"/></g></g></g></g></g></g></g></g></g></g></g></g></g></g></svg>
